icons/svg/functional-icons/hazard_slippery_road.svg

<?xml version="1.0" encoding="UTF-8" standalone="no"?>
<svg
   xmlns:dc="http://purl.org/dc/elements/1.1/"
   xmlns:cc="http://creativecommons.org/ns#"
   xmlns:rdf="http://www.w3.org/1999/02/22-rdf-syntax-ns#"
   xmlns:svg="http://www.w3.org/2000/svg"
   xmlns="http://www.w3.org/2000/svg"
   xmlns:sodipodi="http://sodipodi.sourceforge.net/DTD/sodipodi-0.dtd"
   xmlns:inkscape="http://www.inkscape.org/namespaces/inkscape"
   width="580"
   height="580"
   id="svg2"
   version="1.1"
   inkscape:version="0.91 r13725"
   sodipodi:docname="hazard_slippery_road.svg">
  <defs
     id="defs13" />
  <sodipodi:namedview
     pagecolor="#ffffff"
     bordercolor="#666666"
     borderopacity="1"
     objecttolerance="10"
     gridtolerance="10"
     guidetolerance="10"
     inkscape:pageopacity="0"
     inkscape:pageshadow="2"
     inkscape:window-width="1920"
     inkscape:window-height="1006"
     id="namedview11"
     showgrid="false"
     inkscape:zoom="0.57543862"
     inkscape:cx="221.47523"
     inkscape:cy="465.69086"
     inkscape:window-x="1920"
     inkscape:window-y="0"
     inkscape:window-maximized="1"
     inkscape:current-layer="svg2"
     inkscape:snap-center="true"
     inkscape:snap-object-midpoints="true" />
  <metadata
     id="metadata2975">image/svg+xmlen<rdf:RDF>
  <cc:Work
     rdf:about="">
    <dc:format>image/svg+xml</dc:format>
    <dc:type
       rdf:resource="http://purl.org/dc/dcmitype/StillImage" />
    <dc:title />
  </cc:Work>
</rdf:RDF>
</metadata>
  <g
     id="g5"
     transform="matrix(1.7470777,0,0,1.7471252,-216.65253,-222.73058)"
     style="fill:#000000;fill-opacity:1;stroke:none">
    <title
       id="title7">Layer 1</title>
    <g
       id="g1327"
       style="fill:#000000;fill-opacity:1;stroke:none" />
    <path
       style="fill:#000000;fill-opacity:1;fill-rule:evenodd;stroke:none"
       d="M 288.21875,150.3811 A 32.25812,32.25812 0 0 0 262,166.47485 l -122.9375,212.875 a 32.25812,32.25812 0 0 0 27.90625,48.375 l 246,0.1875 a 32.25812,32.25812 0 0 0 27.96875,-48.375 L 317.875,166.47485 A 32.25812,32.25812 0 0 0 288.21875,150.3811 Z"
       id="path2990"
       inkscape:connector-curvature="0" />
  </g>
  <path
     style="color:#000000;display:inline;overflow:visible;visibility:visible;fill:#fff200;fill-opacity:1;fill-rule:nonzero;stroke:none;marker:none;enable-background:accumulate"
     d="M 74.866653,471.02372 C 70.661784,463.90823 75.540059,450.183 75.540059,450.183 L 275.74202,103.38966 c 0,0 8.67708,-17.018819 16.87775,-16.960807 8.20067,0.05801 17.57483,18.168297 17.57483,18.168297 l 197.82527,342.67643 c 0,0 7.43258,15.49307 3.20786,23.08346 -4.22471,7.59039 -16.38682,8.02322 -16.38682,8.02322 L 94.366758,477.96464 c 0,0 -15.295235,0.17457 -19.500105,-6.94092 z"
     id="path3788"
     inkscape:connector-curvature="0"
     sodipodi:nodetypes="zcczcczccz" />
  <path
     style="fill:#000000;fill-opacity:1;stroke:none"
     d="m 273.08148,215.46444 c -10.60288,-2.44184 -17.29615,0.90298 -21.14364,5.73645 l -20.35434,25.35607 c -5.59351,-0.69667 -16.46388,2.21405 -18.70696,11.95406 l -8.35556,36.28147 13.41645,3.08977 -2.67215,11.60304 c -3.28752,14.2751 21.95294,19.9109 25.20176,5.80388 l 2.67217,-11.60299 45.33378,10.44027 0.0141,0.003 45.33378,10.44027 -2.67217,11.60302 c -3.2488,14.10699 21.91411,20.07901 25.20178,5.80393 l 2.67214,-11.60305 13.41643,3.08979 8.35554,-36.28147 c 2.24311,-9.74 -6.25901,-17.11222 -11.59392,-18.93228 l -7.22797,-31.70823 c -1.34581,-6.02945 -5.90177,-11.96494 -16.50475,-14.4068 l -19.48538,-4.48744 -33.18113,-7.64155 -19.72056,-4.54163 z m -2.5544,10.35244 36.32582,8.36574 0.0294,0.007 0.0141,0.003 36.34046,8.36914 c 4.53608,1.08034 5.95758,3.80644 6.52956,7.2594 l 5.21858,24.84472 -54.51805,-12.55537 -0.0141,-0.003 -0.0294,-0.007 -54.50338,-12.55203 15.55991,-20.05948 c 2.02472,-2.85494 4.49489,-4.68475 9.04707,-3.67213 z"
     id="path2301"
     inkscape:connector-curvature="0"
     sodipodi:nodetypes="cccsccssccccssccsccsccccccccccccccccc" />
  <path
     style="fill:#000000;fill-opacity:1;stroke:none"
     d="m 201.7626,455.40473 63.78354,0 c 0,0 15.18528,-28.34869 -6.60658,-48.49832 -19.70056,-18.21594 -35.69212,-24.35752 -40.06043,-34.41941 -7.45067,-17.16175 6.85171,-31.25575 6.85171,-31.25575 0,0 -28.25636,9.26112 -30.40934,19.69841 -3.63797,17.63632 5.93058,22.23807 34.00857,54.14489 18.40134,20.9106 -27.56747,40.33018 -27.56747,40.33018 z"
     id="path3767"
     inkscape:connector-curvature="0"
     sodipodi:nodetypes="ccsscssc" />
  <path
     style="fill:#000000;fill-opacity:1;stroke:none"
     d="m 327.57814,455.25828 63.78354,0 c 0,0 2.18985,-12.10441 -19.60201,-32.25403 -19.70056,-18.21595 -38.24468,-25.37854 -42.61298,-35.44044 -7.45067,-17.16174 9.40426,-30.23472 9.40426,-30.23472 0,0 -30.04314,6.19807 -34.49339,25.31399 -4.08308,17.53864 3.97426,19.99588 33.75329,46.61489 17.4199,15.57138 -10.23271,26.00031 -10.23271,26.00031 z"
     id="path3767-2"
     inkscape:connector-curvature="0"
     sodipodi:nodetypes="ccsscssc" />
</svg>

<svg width="580" height="580" viewBox="0 0 580 580" fill="none" xmlns="http://www.w3.org/2000/svg">
<path fill-rule="evenodd" clip-rule="evenodd" d="M286.888 40.0039C277.516 40.5055 268.417 43.3401 260.418 48.2504C252.418 53.1607 245.772 59.9912 241.082 68.1217L26.3009 440.041C21.362 448.604 18.7623 458.316 18.7627 468.201C18.7631 478.087 21.3636 487.798 26.3031 496.361C31.2426 504.924 38.3475 512.037 46.9046 516.986C55.4617 521.935 65.1701 524.547 75.0553 524.558L504.836 524.886C514.731 524.894 524.453 522.296 533.025 517.355C541.598 512.413 548.718 505.302 553.671 496.736C558.623 488.17 561.233 478.451 561.238 468.556C561.243 458.662 558.643 448.94 553.7 440.369L338.7 68.1217C333.501 59.1088 325.909 51.7111 316.764 46.7483C307.619 41.7854 297.279 39.4511 286.888 40.0039V40.0039Z" fill="black"/>
<path d="M74.8671 471.024C70.6622 463.908 75.5405 450.183 75.5405 450.183L275.742 103.39C275.742 103.39 284.42 86.3708 292.62 86.4289C300.821 86.4869 310.195 104.597 310.195 104.597L508.02 447.274C508.02 447.274 515.453 462.767 511.228 470.357C507.003 477.947 494.841 478.38 494.841 478.38L94.3672 477.965C94.3672 477.965 79.072 478.139 74.8671 471.024V471.024Z" fill="#FFF200"/>
<path d="M273.081 215.464C262.478 213.022 255.785 216.367 251.937 221.201L231.583 246.557C225.99 245.86 215.119 248.771 212.876 258.511L204.521 294.792L217.937 297.882L215.265 309.485C211.977 323.76 237.218 329.396 240.467 315.289L243.139 303.686L288.473 314.126L288.487 314.129L333.82 324.57L331.148 336.173C327.899 350.28 353.062 356.252 356.35 341.977L359.022 330.374L372.439 333.463L380.794 297.182C383.037 287.442 374.535 280.07 369.2 278.25L361.972 246.541C360.626 240.512 356.07 234.576 345.467 232.135L325.982 227.647L292.801 220.006L273.08 215.464L273.081 215.464ZM270.527 225.817L306.852 234.183L306.882 234.19L306.896 234.193L343.236 242.562C347.772 243.642 349.194 246.368 349.766 249.821L354.985 274.666L300.466 262.11L300.452 262.107L300.423 262.1L245.92 249.548L261.48 229.489C263.504 226.634 265.974 224.804 270.527 225.817L270.527 225.817Z" fill="black"/>
<path d="M201.762 455.405H265.546C265.546 455.405 280.731 427.056 258.939 406.907C239.239 388.691 223.247 382.549 218.879 372.487C211.428 355.325 225.731 341.231 225.731 341.231C225.731 341.231 197.474 350.493 195.321 360.93C191.683 378.566 201.252 383.168 229.33 415.075C247.731 435.985 201.762 455.405 201.762 455.405V455.405Z" fill="black"/>
<path d="M327.578 455.258H391.362C391.362 455.258 393.552 443.154 371.76 423.004C352.059 404.788 333.515 397.626 329.147 387.564C321.696 370.402 338.551 357.329 338.551 357.329C338.551 357.329 308.508 363.527 304.058 382.643C299.975 400.182 308.032 402.639 337.811 429.258C355.231 444.829 327.578 455.258 327.578 455.258V455.258Z" fill="black"/>
</svg>
